plasma/desktoptheme/WinSur-light/icons/akonadi.svg

<svg version="1.1" viewBox="0 0 54 32" xmlns="http://www.w3.org/2000/svg">
 <defs>
  <style id="current-color-scheme" type="text/css">.ColorScheme-Text{color:#000000}</style>
 </defs>
 <g id="22-22-akonadi">
  <path class="ColorScheme-Text" d="m11 13c-4.418 0-8 0.895-8 2v12c0 1.105 3.582 2 8 2s8-0.895 8-2v-12c0-1.105-3.582-2-8-2zm0 1c3.866 0 7 0.448 7 1s-3.134 1-7 1-7-0.448-7-1 3.134-1 7-1z" color="#000000" fill="currentColor"/>
  <path d="M0 10v22h22V10H0z" fill="none"/>
 </g>
 <g id="akonadi">
  <path class="ColorScheme-Text" d="m38 4c-6.6274 0-12 1.3431-12 3v18c0 1.6569 5.3726 3 12 3s12-1.3431 12-3v-18c0-1.6569-5.3726-3-12-3zm0 1c6.0751 0 11 0.89543 11 2s-4.9249 2-11 2-11-0.89543-11-2 4.9249-2 11-2z" color="#000000" fill="currentColor"/>
  <path d="M22 0v32h32V0H22z" fill="none"/>
 </g>
</svg>

<?xml version="1.0" encoding="UTF-8" standalone="no"?>
<svg
   version="1.1"
   viewBox="0 0 54 32"
   id="svg15"
   sodipodi:docname="akonadi.svg"
   inkscape:version="1.1 (c4e8f9ed74, 2021-05-24)"
   xmlns:inkscape="http://www.inkscape.org/namespaces/inkscape"
   xmlns:sodipodi="http://sodipodi.sourceforge.net/DTD/sodipodi-0.dtd"
   xmlns="http://www.w3.org/2000/svg"
   xmlns:svg="http://www.w3.org/2000/svg">
  <sodipodi:namedview
     id="namedview17"
     pagecolor="#c8c8c8"
     bordercolor="#999999"
     borderopacity="1"
     inkscape:pageshadow="0"
     inkscape:pageopacity="0"
     inkscape:pagecheckerboard="0"
     showgrid="false"
     inkscape:zoom="12.351852"
     inkscape:cx="5.05997"
     inkscape:cy="18.45877"
     inkscape:window-width="1920"
     inkscape:window-height="954"
     inkscape:window-x="0"
     inkscape:window-y="40"
     inkscape:window-maximized="1"
     inkscape:current-layer="svg15" />
  <defs
     id="defs3">
    <style
       id="current-color-scheme"
       type="text/css">.ColorScheme-Text{color:#333333}</style>
  </defs>
  <g
     id="22-22-akonadi">
    <path
       style="color:#333333;fill:#ffffff;-inkscape-stroke:none"
       d="m 11,13 c -4.418,0 -8,0.895 -8,2 v 12 c 0,1.105 3.582,2 8,2 4.418,0 8,-0.895 8,-2 V 15 c 0,-1.105 -3.582,-2 -8,-2 z m 0,1 c 3.866,0 7,0.448 7,1 0,0.552 -3.134,1 -7,1 -3.866,0 -7,-0.448 -7,-1 0,-0.552 3.134,-1 7,-1 z"
       id="path5" />
    <path
       d="M0 10v22h22V10H0z"
       fill="none"
       id="path7" />
  </g>
  <g
     id="akonadi">
    <path
       style="color:#333333;fill:#ffffff;-inkscape-stroke:none"
       d="M 38,4 C 31.3726,4 26,5.3431 26,7 v 18 c 0,1.6569 5.3726,3 12,3 6.6274,0 12,-1.3431 12,-3 V 7 C 50,5.3431 44.6274,4 38,4 Z m 0,1 C 44.0751,5 49,5.89543 49,7 49,8.10457 44.0751,9 38,9 31.9249,9 27,8.10457 27,7 27,5.89543 31.9249,5 38,5 Z"
       id="path10" />
    <path
       d="M22 0v32h32V0H22z"
       fill="none"
       id="path12" />
  </g>
</svg>
